build/assets/images/proyectos/logos/fichas/logo-unicaja.svg

<svg width="190" height="72" viewBox="0 0 190 72" fill="none" xmlns="http://www.w3.org/2000/svg">
<g clip-path="url(#clip0)">
<path fill-rule="evenodd" clip-rule="evenodd" d="M102.125 38.8353V50.9187C102.125 54.777 99.6251 56.277 96.9501 56.277C94.0085 56.277 91.8835 54.402 91.8835 51.2853V38.8353H86.7751V51.1686C86.7751 57.852 91.0751 60.7936 97.0251 60.7936C102.608 60.7936 107.233 58.2936 107.233 51.1353V38.8353H102.125ZM115.533 45.8437H111.167V60.502H115.533V51.0603C116.675 49.2603 117.483 48.6353 118.542 48.6353C119.792 48.6353 120.708 49.5187 120.708 51.577V60.502H125.042V51.2103C125.042 46.877 122.175 45.5937 120.008 45.5937C118.242 45.5937 116.883 46.2937 115.525 47.9437L115.533 45.8437ZM133.083 45.8437H128.75V60.502H133.083V45.8437ZM148.875 56.4936C146.925 57.2686 146.008 57.5186 144.95 57.5186C142.492 57.5186 140.833 55.7936 140.833 53.1853C140.833 50.6103 142.483 48.9603 145.133 48.9603C146.2 48.9603 147.525 49.327 148.658 49.952V46.5353C147.225 45.9437 145.425 45.577 143.992 45.577C139.433 45.577 136.167 48.7353 136.167 53.2186C136.167 57.777 139.325 60.7853 144.175 60.7853C145.642 60.7853 147.108 60.452 148.875 59.7936V56.4936ZM165.917 56.8686C164.892 57.6353 164.558 57.7103 164.267 57.7103C163.792 57.7103 163.533 57.4186 163.533 56.6853V50.0353C163.533 46.802 161.183 45.5937 157.692 45.5937C155.492 45.5937 153.467 46.1853 151.667 47.3603V51.1103C153.058 49.602 155.042 48.652 156.775 48.652C158.683 48.652 159.275 49.752 159.2 51.1103C153.4 53.0187 150.975 53.7186 150.975 57.2103C150.975 59.0436 152.625 60.8103 154.833 60.8103C156.342 60.8103 157.733 60.3353 159.383 59.1603C159.717 60.3353 160.375 60.8103 161.842 60.8103C162.983 60.8103 164.708 60.2186 165.917 59.452V56.8686ZM159.2 56.9353C158.467 57.6353 157.583 58.0353 156.775 58.0353C156.008 58.0353 155.383 57.3353 155.383 56.4936C155.383 55.027 156.592 54.402 159.2 53.4103V56.9353ZM172.233 45.8437H167.858V59.802C167.858 62.1936 167.2 63.3686 165.617 63.6186L167.008 67.802C169.208 67.5853 172.225 65.8936 172.225 60.8936V45.8437H172.233ZM189.975 56.8686C188.95 57.6353 188.617 57.7103 188.325 57.7103C187.85 57.7103 187.592 57.4186 187.592 56.6853V50.0353C187.592 46.802 185.242 45.5937 181.75 45.5937C179.55 45.5937 177.525 46.1853 175.725 47.3603V51.1103C177.117 49.602 179.1 48.652 180.833 48.652C182.742 48.652 183.333 49.752 183.258 51.1103C177.458 53.0187 175.033 53.7186 175.033 57.2103C175.033 59.0436 176.683 60.8103 178.892 60.8103C180.4 60.8103 181.792 60.3353 183.442 59.1603C183.775 60.3353 184.433 60.8103 185.9 60.8103C187.042 60.8103 188.767 60.2186 189.975 59.452V56.8686ZM183.25 56.9353C182.517 57.6353 181.633 58.0353 180.825 58.0353C180.05 58.0353 179.433 57.3353 179.433 56.4936C179.433 55.027 180.642 54.402 183.25 53.4103V56.9353V56.9353Z" fill="white"/>
<path fill-rule="evenodd" clip-rule="evenodd" d="M0.31665 68.4685H189.5V71.1518H0.31665V68.4685Z" fill="white"/>
<path fill-rule="evenodd" clip-rule="evenodd" d="M46.5921 62.5943C22.7171 42.8693 0.0253906 24.3277 0.0253906 24.3277C0.0253906 24.3277 5.90039 15.436 15.4837 9.26933L46.5921 62.5943ZM44.4254 55.361C31.5337 33.7693 16.8837 8.67766 16.8837 8.67766C16.8837 8.67766 25.4004 3.24433 33.5921 1.84433L44.4254 55.361ZM44.7921 49.1193C40.8254 29.3943 35.7171 1.59433 35.7171 1.59433C35.7171 1.59433 42.6254 0.269329 50.2587 1.261L44.7921 49.1193ZM47.2921 43.0527C50.0504 21.161 52.0337 1.44433 52.0337 1.44433C52.0337 1.44433 58.9421 2.10267 63.4587 4.64433C63.4504 4.64433 57.6837 18.3027 47.2921 43.0527ZM50.7421 39.5693C60.3671 17.2777 65.3254 5.22767 65.3254 5.22767C65.3254 5.22767 69.5837 6.40267 73.9171 10.0777L50.7421 39.5693ZM54.8921 36.811C71.9337 15.3277 75.0587 10.886 75.0587 10.886C75.0587 10.886 76.5254 11.1443 80.6421 15.661L54.8921 36.811ZM58.4921 36.0443C79.0587 19.4777 82.0004 17.2777 82.0004 17.2777C82.0004 17.2777 84.5671 19.7027 85.8171 21.9777L58.4921 36.0443ZM65.9504 34.2027C80.0504 26.9277 86.9921 23.736 86.9921 23.736C86.9921 23.736 87.7587 24.511 88.6421 26.6027L65.9504 34.2027ZM70.2504 34.3193C89.6754 28.3693 89.1254 28.336 89.1254 28.336C89.1254 28.336 89.9004 29.6943 89.9004 30.686L70.2504 34.3193Z" fill="white"/>
<path fill-rule="evenodd" clip-rule="evenodd" d="M125.959 38.3518C125.95 36.1685 127.709 34.3935 129.892 34.3851C129.9 34.3851 129.917 34.3851 129.925 34.3851C132.117 34.3851 133.892 36.1601 133.892 38.3518C133.892 40.5185 132.092 42.3185 129.925 42.3185C127.734 42.3185 125.967 40.5435 125.959 38.3518Z" fill="white"/>
<path fill-rule="evenodd" clip-rule="evenodd" d="M165.592 38.5019C165.592 36.2269 167.425 34.3853 169.667 34.3853C171.933 34.3769 173.775 36.2186 173.783 38.4853C173.783 38.4936 173.783 38.4936 173.783 38.5019C173.783 40.7436 171.95 42.5769 169.667 42.5769C167.417 42.5686 165.6 40.7519 165.592 38.5019Z" fill="white"/>
</g>
<defs>
<clipPath id="clip0">
<rect width="190" height="70.3333" fill="white" transform="translate(0 0.835205)"/>
</clipPath>
</defs>
</svg>

<svg width="190" height="72" fill="none" xmlns="http://www.w3.org/2000/svg"><g clip-path="url(#clip0)" fill-rule="evenodd" clip-rule="evenodd" fill="#fff"><path d="M102.125 38.835V50.92c0 3.858-2.5 5.358-5.175 5.358-2.942 0-5.067-1.875-5.067-4.992v-12.45h-5.108V51.17c0 6.683 4.3 9.625 10.25 9.625 5.583 0 10.208-2.5 10.208-9.659v-12.3h-5.108zm13.408 7.009h-4.366v14.658h4.366V51.06c1.142-1.8 1.95-2.425 3.009-2.425 1.25 0 2.166.884 2.166 2.942v8.925h4.334V51.21c0-4.333-2.867-5.616-5.034-5.616-1.766 0-3.125.7-4.483 2.35l.008-2.1zm17.55 0h-4.333v14.658h4.333V45.844zm15.792 10.65c-1.95.775-2.867 1.025-3.925 1.025-2.458 0-4.117-1.725-4.117-4.334 0-2.575 1.65-4.225 4.3-4.225 1.067 0 2.392.367 3.525.992v-3.417c-1.433-.591-3.233-.958-4.666-.958-4.559 0-7.825 3.158-7.825 7.642 0 4.558 3.158 7.566 8.008 7.566 1.467 0 2.933-.333 4.7-.991v-3.3zm17.042.375c-1.025.766-1.359.841-1.65.841-.475 0-.734-.291-.734-1.025v-6.65c0-3.233-2.35-4.441-5.841-4.441-2.2 0-4.225.591-6.025 1.766v3.75c1.391-1.508 3.375-2.458 5.108-2.458 1.908 0 2.5 1.1 2.425 2.458-5.8 1.909-8.225 2.609-8.225 6.1 0 1.834 1.65 3.6 3.858 3.6 1.509 0 2.9-.475 4.55-1.65.334 1.175.992 1.65 2.459 1.65 1.141 0 2.866-.591 4.075-1.358v-2.583zm-6.717.066c-.733.7-1.617 1.1-2.425 1.1-.767 0-1.392-.7-1.392-1.541 0-1.467 1.209-2.092 3.817-3.084v3.525zm13.033-11.091h-4.375v13.958c0 2.392-.658 3.567-2.241 3.817l1.391 4.183c2.2-.217 5.217-1.908 5.217-6.908v-15.05h.008zm17.742 11.025c-1.025.766-1.358.841-1.65.841-.475 0-.733-.291-.733-1.025v-6.65c0-3.233-2.35-4.441-5.842-4.441-2.2 0-4.225.591-6.025 1.766v3.75c1.392-1.508 3.375-2.458 5.108-2.458 1.909 0 2.5 1.1 2.425 2.458-5.8 1.909-8.225 2.609-8.225 6.1 0 1.834 1.65 3.6 3.859 3.6 1.508 0 2.9-.475 4.55-1.65.333 1.175.991 1.65 2.458 1.65 1.142 0 2.867-.591 4.075-1.358v-2.583zm-6.725.066c-.733.7-1.617 1.1-2.425 1.1-.775 0-1.392-.7-1.392-1.541 0-1.467 1.209-2.092 3.817-3.084v3.525zM.317 68.469H189.5v2.683H.317v-2.683zm46.275-5.875A12717.48 12717.48 0 00.025 24.328S5.9 15.436 15.484 9.269l31.108 53.325zm-2.167-7.233C31.534 33.769 16.884 8.678 16.884 8.678S25.4 3.244 33.592 1.844l10.833 53.517zm.367-6.242c-3.967-19.725-9.075-47.525-9.075-47.525S42.625.27 50.26 1.261l-5.467 47.858zm2.5-6.066a1883.824 1883.824 0 004.742-41.609s6.908.659 11.425 3.2c-.009 0-5.775 13.659-16.167 38.409zm3.45-3.484C60.367 17.278 65.325 5.228 65.325 5.228s4.259 1.175 8.592 4.85L50.742 39.569zm4.15-2.758C71.934 15.328 75.06 10.886 75.06 10.886s1.466.258 5.583 4.775l-25.75 21.15zm3.6-.767C79.06 19.478 82 17.278 82 17.278s2.567 2.425 3.817 4.7L58.492 36.044zm7.458-1.841c14.1-7.275 21.042-10.467 21.042-10.467s.767.775 1.65 2.867l-22.692 7.6zm4.3.116c19.425-5.95 18.875-5.983 18.875-5.983s.775 1.358.775 2.35l-19.65 3.633zm55.709 4.033a3.947 3.947 0 013.933-3.967h.033a3.966 3.966 0 013.967 3.967c0 2.167-1.8 3.967-3.967 3.967a3.97 3.97 0 01-3.966-3.967zm39.633.15c0-2.275 1.833-4.117 4.075-4.117 2.266-.008 4.108 1.834 4.116 4.1v.017c0 2.242-1.833 4.075-4.116 4.075a4.086 4.086 0 01-4.075-4.075z"/></g><defs><clipPath id="clip0"><path fill="#fff" transform="translate(0 .835)" d="M0 0h190v70.333H0z"/></clipPath></defs></svg>
